X: 1
T: Reel de R\'emi
R: reel
S: Fiddle Hell Online 2022-3-26 handout for Fiddle Hell jam session
B: the Portland Collection 1 p.175
Z: 2022 John Chambers <jc:trillian.mit.edu>
M: C|
L: 1/8
K: D
AG |\
"D"FDDD DFA=c | "G"BGGF G2ed | "A"cAAA Aceg | "D"fdec "A"dBAG ||
"D"FDDD DFA=c | "G"BGGF G2ed | "A"cAAA Aceg | "D"fdec d2 :|
|: ef |\
"G"g3f  g2b2 | "D"abaf "Bm"d2a2 | "Em"gece "A"Acec | "D"dcde fdef ||
"G"g2gf g2b2 | "D"abaf "Bm"dfaf | "Em"gece "A"Acec | "D"d2dc d2 :|
